ix/video-remove_twotone.svg

<svg viewBox="0 0 24 24" fill="none" xmlns="http://www.w3.org/2000/svg" height="1em" width="1em">
  <path d="M22 9v6c0 .23 0 .45-.02.67-.04-.06-.09-.12-.14-.17-.81-.93-2.01-1.5-3.34-1.5-1.26 0-2.41.52-3.23 1.36a4.5 4.5 0 0 0-.62 5.46c.23.38.52.73.86 1.02.05.05.1.09.16.14-.21.02-.44.02-.67.02H9c-5 0-7-2-7-7V9c0-5 2-7 7-7h6c5 0 7 2 7 7Z" stroke="#292D32" stroke-width="1.5" stroke-linecap="round" stroke-linejoin="round"/>
  <path d="M2.52 7.11h18.96m-12.96-5v4.86m6.96-4.86v4.41" opacity=".4" stroke="#292D32" stroke-width="1.5" stroke-linecap="round" stroke-linejoin="round"/>
  <path d="M23 18.5c0 .36-.04.71-.13 1.05-.11.45-.29.88-.52 1.27A4.487 4.487 0 0 1 18.5 23a4.35 4.35 0 0 1-2.82-1.02h-.01c-.06-.05-.11-.09-.16-.14-.34-.29-.63-.64-.86-1.02a4.5 4.5 0 0 1 .62-5.46c.82-.84 1.97-1.36 3.23-1.36 1.33 0 2.53.57 3.34 1.5.05.05.1.11.14.17.64.77 1.02 1.76 1.02 2.83Z" stroke="#292D32" stroke-width="1.5" stroke-miterlimit="10" stroke-linecap="round" stroke-linejoin="round"/>
  <path d="m19.7 19.68-2.38-2.38m2.36.02L17.3 19.7" opacity=".4" stroke="#292D32" stroke-width="1.5" stroke-miterlimit="10" stroke-linecap="round" stroke-linejoin="round"/>
</svg>

<svg viewBox="0 0 24 24" fill="none" xmlns="http://www.w3.org/2000/svg" height="1em" width="1em">
  <path d="M22 9V15C22 15.23 22 15.45 21.98 15.67C21.94 15.61 21.89 15.55 21.84 15.5C21.03 14.57 19.83 14 18.5 14C17.24 14 16.09 14.52 15.27 15.36C14.48 16.17 14 17.28 14 18.5C14 19.34 14.24 20.14 14.65 20.82C14.88 21.2 15.17 21.55 15.51 21.84C15.56 21.89 15.61 21.93 15.67 21.98C15.46 22 15.23 22 15 22H9C4 22 2 20 2 15V9C2 4 4 2 9 2H15C20 2 22 4 22 9Z" stroke="#292D32" stroke-width="1.5" stroke-linecap="round" stroke-linejoin="round"/>
  <g opacity="0.4">
    <path d="M2.51953 7.10986H21.4795" stroke="#292D32" stroke-width="1.5" stroke-linecap="round" stroke-linejoin="round"/>
    <path d="M8.51953 2.10986V6.96985" stroke="#292D32" stroke-width="1.5" stroke-linecap="round" stroke-linejoin="round"/>
    <path d="M15.4805 2.10986V6.5199" stroke="#292D32" stroke-width="1.5" stroke-linecap="round" stroke-linejoin="round"/>
  </g>
  <path d="M23 18.5C23 18.86 22.96 19.21 22.87 19.55C22.76 20 22.58 20.43 22.35 20.82C21.57 22.12 20.14 23 18.5 23C17.42 23 16.44 22.62 15.68 21.98C15.67 21.98 15.67 21.98 15.67 21.98C15.61 21.93 15.56 21.89 15.51 21.84C15.17 21.55 14.88 21.2 14.65 20.82C14.24 20.14 14 19.34 14 18.5C14 17.28 14.48 16.17 15.27 15.36C16.09 14.52 17.24 14 18.5 14C19.83 14 21.03 14.57 21.84 15.5C21.89 15.55 21.94 15.61 21.98 15.67C22.62 16.44 23 17.43 23 18.5Z" stroke="#292D32" stroke-width="1.5" stroke-miterlimit="10" stroke-linecap="round" stroke-linejoin="round"/>
  <g opacity="0.4">
    <path d="M19.7003 19.6798L17.3203 17.2998" stroke="#292D32" stroke-width="1.5" stroke-miterlimit="10" stroke-linecap="round" stroke-linejoin="round"/>
    <path d="M19.6808 17.3198L17.3008 19.6998" stroke="#292D32" stroke-width="1.5" stroke-miterlimit="10" stroke-linecap="round" stroke-linejoin="round"/>
  </g>
</svg>
